Sources/FrostedUI/Resources/Icons.xcassets/edit20.imageset/edit-20.svg

<svg width="20" height="20" viewBox="0 0 20 20" fill="none" xmlns="http://www.w3.org/2000/svg" data-fui-icon="true">
  <path
    d="M7.25 1C7.66421 1 7.99999 1.33579 8 1.75C8 2.16421 7.66421 2.5 7.25 2.5H5.75C3.95508 2.5 2.50001 3.95508 2.5 5.75V14.25C2.5 16.0449 3.95507 17.5 5.75 17.5H14.25C16.0449 17.5 17.5 16.0449 17.5 14.25V12.75C17.5 12.3358 17.8358 12 18.25 12C18.6642 12 19 12.3358 19 12.75V14.25C19 16.8734 16.8734 19 14.25 19H5.75C3.12665 19 1 16.8734 1 14.25V5.75C1.00001 3.12665 3.12665 1 5.75 1H7.25ZM13.54 1.89941C14.7994 0.640343 16.8413 0.640243 18.1006 1.89941C19.3597 3.15872 19.3596 5.2006 18.1006 6.45996L11.3662 13.1943C10.8506 13.71 10.1511 13.9999 9.42188 14H7.25C6.55975 14 6.00016 13.4402 6 12.75V10.5781C6.00007 9.84893 6.29004 9.14941 6.80566 8.63379L13.54 1.89941ZM7.86621 9.69434C7.63189 9.92865 7.50007 10.2468 7.5 10.5781V12.5H9.42188C9.75326 12.4999 10.0713 12.3681 10.3057 12.1338L14.6992 7.74023L12.2598 5.30078L7.86621 9.69434ZM17.04 2.95996C16.3665 2.28658 15.2742 2.28668 14.6006 2.95996L13.3203 4.24023L15.7598 6.67969L17.04 5.39941C17.7133 4.72584 17.7134 3.63348 17.04 2.95996Z"
    fill="currentColor"
  />
</svg>

<svg xmlns="http://www.w3.org/2000/svg" width="20" height="20" fill="none" data-fui-icon="true" viewBox="0 0 20 20"><path fill="currentColor" d="M7.25 1a.75.75 0 0 1 0 1.5h-1.5A3.25 3.25 0 0 0 2.5 5.75v8.5a3.25 3.25 0 0 0 3.25 3.25h8.5a3.25 3.25 0 0 0 3.25-3.25v-1.5a.75.75 0 0 1 1.5 0v1.5A4.75 4.75 0 0 1 14.25 19h-8.5A4.75 4.75 0 0 1 1 14.25v-8.5A4.75 4.75 0 0 1 5.75 1zm6.29.9a3.225 3.225 0 0 1 4.56 4.56l-6.734 6.734A2.75 2.75 0 0 1 9.422 14H7.25C6.56 14 6 13.44 6 12.75v-2.172c0-.73.29-1.429.806-1.944zM7.866 9.693a1.25 1.25 0 0 0-.366.884V12.5h1.922c.331 0 .65-.132.884-.366l4.393-4.394-2.44-2.44zM17.04 2.96a1.725 1.725 0 0 0-2.44 0l-1.28 1.28 2.44 2.44 1.28-1.28a1.725 1.725 0 0 0 0-2.44"/></svg>
